X:1
T:E minor Daniel Belknap, 1797
T:Nahum Tate and Nicholas Brady, 1698 (Psalm 13)      86. 86. (C. M.)
T:Rowley
T:Transcribed from The Harmonist's Companion, 1797.
%%score [ 1 2 3 4 ]
L:1/8
Q:1/4=120
M:4/4
K:G
V:1 treble nm="Voice"
V:2 treble nm="Voice"
V:3 treble-8 nm="Tenor"
V:4 bass nm="Bass"
V:1
"^3.  Since I have al–ways  placed my         trust    Beneath thy  mercy's wing,   Thy  sa–ving    health will come, and    then My heart with joy shall spring:""^1.  How long wilt thou forget    me,         Lord?  Must  I  for ev  –  er mourn? How long wilt   thou with–draw from   me,     Oh!    ne–ver to    re– turn?""^2.  O      hear, and to my   long – ing          eyes    Re–store thy wonted light;    And sud–den  –  ly,   or      I          shall    sleep   In      ev– er–las–ting night." G8 | %1
 B2 B2 B2 Bc | B4 d4 | e6 B2 | B2 e2 d>c B2 | B8 | B4 Bc dc | B2 B2 e2 fe | ^d6 e2 | B2 c2 B2 B2 | %10
 B8 |: z8 | z8 | %13
 z4 z2"^How long shall anxious thoughts my soul  And grief my heart oppress?           How    long  my   en – e – mies insult, ___________           And        I       have  no  re – dress?""^Re–store me, lest they proudly boast 'Twas their own strength o'ercame;        Per  –  mit  not them that vex my soul ___________           To          tri –umph in  my  shame.""^Then shall my song, with praise inspired, To thee, my God, ascend;                    Who     to   thy   ser–vant in   distress ___________          Such      boun–ty  didst ex– tend." G2 | %14
 B2 B2 B2 B2 | e2 e2 e2 dc | B2 B2 B>c BA | B6 BA | G2 GA B2 d2 | e2 e2 (^d4 | e6) B2 | %21
 BA Bc B2 B2 | B8 :| %23
V:2
 E8 | G2 G2 F2 E2 | D4 DE F2 | G6 G2 | G2 E2 F2 F2 | G8 | G4 F2 F2 | E2 E2 EG F2 | F6 AF | %9
 G2 E2 E2 ^D2 | E8 |: z8 | z8 | z8 | %14
 z4 z2"^How long shall anxious thoughts my soul  And grief my heart op – press?             How long my  en– e – mies insult,  And   I      have    no  re – dress?""^Re–store me, lest they proudly boast 'Twas their own strength o'ercame;              Permit not them that vex my soul    To    tri–umph  in   my   shame.""^Then  shall my song, with praise inspired, To  thee, my God,  a  –  scend;                Who  to  thy  servant  in distress   Such  bounty  didst  ex – tend." D2 | %15
 G2 G2 G2 F2 | G2 G2 G2 D2 | D2 D2 E2 G2 | G6 F2 | E2 G2 F2 F2 | G2 G2 G2 GF | E2 E2 ^D2 D2 | E8 :| %23
V:3
"^1.  How long wilt thou forget    me,         Lord?  Must  I  for ev  –  er mourn? How long wilt   thou with–draw from   me,     Oh!    ne–ver to    re– turn?                                        How""^2.  O      hear, and to my   long – ing          eyes    Re–store thy wonted light;    And sud–den  –  ly,   or      I          shall    sleep   In      ev– er–las–ting night.                                       Re–""^3.  Since I have al–ways  placed my         trust    Beneath thy  mercy's wing,   Thy  sa–ving    health will come, and    then My heart with joy shall spring:                                     Then" B8 | %1
 e2 e2 d2 BA | G4 A4 | B6 e2 | d2 c2 B2 d2 | e8 | e4 dc BA | B2 BA G2 A2 | B6 c2 | B2 A2 G2 F2 | %10
 E8 |: z8 | z4 z2 G2 | %13
"^long shall anxious thoughts my soul And grief my heart oppress?  How   long  my  en – e     –    mies  in – sult, ______________________________              And     I         have  no  re – dress?""^–store me, lest they proudly boast 'Twas their own strength o'ercame; Per–mit not them that    vex     my  soul ______________________________                To       tri – umph  in  my  shame.""^shall my song, with praise inspired, To thee, my God, ascend;          Who   to    thy   servant        in       dis – tress ____________________________               Such  boun – ty  didst ex – tend." B2 B2 B2 e2 | %14
 d2 d2 d2 GA | B2 B2 B2 d2 | e6 f2 | g2 gf e2 dc | BA dc B4- | B8- | B6 e2 | Bc BA G2 F2 | E8 :| %23
V:4
 E,8 | E,2 E,2 B,,2 E,F, | G,4 F,4 | E,6 E,2 | G,2 A,2 B,2 B,,2 | E,8 | E,4 B,,2 B,,2 | %7
 E,2 E,2 E,2 D,C, | B,,6 A,,2 | G,,2 A,,2 B,,2 B,,2 | E,8 |: %11
 z4"^How long shall anx–""^Restore me, lest they""^Then shall my song, with" B,,4 | %12
 E,2 E,2 E,2 G,2 | %13
"^–ious thoughts my soul  And grief my heart oppress? How long my enemies  in  –  sult, ______________               How long my  en–e–mies insult,  And     I       have  no    re – dress?""^proudly boast 'Twas their own strength o'ercame;  Permit  not  them  that vex my   soul _______________              Permit not them that vex my soul To       triumph    in     my  shame.""^praise inspired, To thee, my God, ascend;        Who   to   thy   ser – vant      in   dis – tress ______________              Who  to  they servant in distress Such   boun–ty  didst ex – tend." E,2 E,2 E,2 E,2 | %14
 G,2 G,2 G,2 G,F, | E,6 B,,2 | E,2 E,2 E,2 D,C, | B,,2 B,,2 E,4- | E,6 B,,2 | E,2 E,2 B,,2 B,,2 | %20
 E,2 E,2 E,2 E,2 | E,F, G,A, B,2 B,,2 | E,8 :| %23

